icons/file-badge-16.svg

<svg width="16" height="16" viewBox="0 0 16 16" fill="none" xmlns="http://www.w3.org/2000/svg">
<g clip-path="url(#clip0_1102_74)">
<path d="M2.75 1.5C2.61193 1.5 2.5 1.61193 2.5 1.75V13.25C2.5 13.3881 2.61193 13.5 2.75 13.5H6.25C6.66421 13.5 7 13.8358 7 14.25C7 14.6642 6.66421 15 6.25 15H2.75C1.7835 15 1 14.2165 1 13.25V1.75C1 0.783502 1.7835 0 2.75 0H10.75C11.3922 0 11.9536 0.345903 12.258 0.861556C12.2937 0.916819 12.365 1.07187 12.365 1.25C12.365 1.66421 12.0292 2 11.615 2C11.3395 2 11.0995 1.85092 10.9691 1.62951C10.9266 1.55231 10.8444 1.5 10.75 1.5H2.75Z" fill="#24292E"/>
<path fill-rule="evenodd" clip-rule="evenodd" d="M8 7C8 4.79086 9.79086 3 12 3C14.2091 3 16 4.79086 16 7C16 8.2674 15.4106 9.39713 14.4908 10.13L15.4855 15.103C15.5386 15.3687 15.4443 15.6425 15.2387 15.819C15.0332 15.9956 14.7484 16.0476 14.4937 15.955L12.0855 15.0792C12.0303 15.0592 11.9698 15.0592 11.9146 15.0792L9.50633 15.955C9.25167 16.0476 8.96686 15.9956 8.76131 15.819C8.55576 15.6425 8.46144 15.3687 8.51458 15.103L9.50918 10.13C8.58946 9.39716 8 8.26742 8 7ZM12 4.5C10.6193 4.5 9.5 5.61929 9.5 7C9.5 8.38071 10.6193 9.5 12 9.5C13.3807 9.5 14.5 8.38071 14.5 7C14.5 5.61929 13.3807 4.5 12 4.5ZM12 11C12.383 11 12.7535 10.9462 13.1043 10.8456L13.753 14.0895L12.5981 13.6695C12.2117 13.5291 11.7883 13.5291 11.402 13.6695L10.247 14.0895L10.8958 10.8456C11.2465 10.9462 11.617 11 12 11Z" fill="#24292E"/>
</g>
<defs>
<clipPath id="clip0_1102_74">
<rect width="16" height="16" fill="white"/>
</clipPath>
</defs>
</svg>

<svg xmlns="http://www.w3.org/2000/svg" width="16" height="16" viewBox="0 0 16 16"><path d="M2.75 1.5a.25.25 0 00-.25.25v11.5c0 .138.112.25.25.25h3.5a.75.75 0 010 1.5h-3.5A1.75 1.75 0 011 13.25V1.75C1 .784 1.784 0 2.75 0h8a1.75 1.75 0 011.508.862.75.75 0 11-1.289.768.25.25 0 00-.219-.13h-8z"/><path fill-rule="evenodd" d="M8 7a4 4 0 116.49 3.13l.995 4.973a.75.75 0 01-.991.852l-2.409-.876a.25.25 0 00-.17 0l-2.409.876a.75.75 0 01-.991-.852l.994-4.973A3.993 3.993 0 018 7zm4-2.5a2.5 2.5 0 100 5 2.5 2.5 0 000-5zm0 6.5a4 4 0 001.104-.154l.649 3.243-1.155-.42c-.386-.14-.81-.14-1.196 0l-1.155.42.649-3.243A4 4 0 0012 11z"/></svg>
